app/assets/images/icons/active/twitter.svg

<?xml version="1.0" encoding="UTF-8" standalone="no"?>
<svg width="32px" height="232px" viewBox="0 0 32 232" version="1.1" xmlns="http://www.w3.org/2000/svg" xmlns:xlink="http://www.w3.org/1999/xlink" xmlns:sketch="http://www.bohemiancoding.com/sketch/ns">
    <title>twitter</title>
    <description>Created with Sketch (http://www.bohemiancoding.com/sketch)</description>
    <defs></defs>
    <g id="Social" stroke="none" stroke-width="1" fill="none" fill-rule="evenodd" sketch:type="MSPage">
        <path d="M24.4064227,9.50428 C25.3395957,8.91072 26.0539557,7.97136 26.390756,6.85036 C25.5190795,7.40136 24.5530131,7.79884 23.5247351,8.01392 C22.7009686,7.0814 21.5289605,6.5 20.2303842,6.5 C17.7390626,6.5 15.7175453,8.64624 15.7175453,11.29636 C15.7175453,11.67332 15.7568745,12.03812 15.8348177,12.38924 C12.0835338,12.19012 8.75843464,10.27872 6.5324059,7.37628 C6.14412013,8.08764 5.92173178,8.9092 5.92173178,9.78852 C5.92173178,11.45368 6.71761035,12.92048 7.93037769,13.7808 C7.18884483,13.75572 6.49307677,13.54064 5.88526295,13.18116 L5.88526295,13.24196 C5.88526295,15.5668 7.43983618,17.50404 9.5056881,17.94636 C9.12598323,18.05428 8.72768641,18.1128 8.31580316,18.1128 C8.02548268,18.1128 7.74159787,18.08392 7.46629396,18.02768 C8.0419294,19.93376 9.70805435,21.32 11.6830917,21.35876 C10.1385295,22.64544 8.19281025,23.41152 6.07833322,23.41152 C5.71221478,23.41152 5.35324709,23.39024 5,23.34464 C6.99720471,24.70504 9.36982383,25.5 11.9204967,25.5 C20.2203731,25.5 24.7610999,18.19032 24.7610999,11.85268 C24.7610999,11.6452 24.7553793,11.43772 24.7467984,11.231 C25.628486,10.55612 26.3936163,9.711 27,8.74884 C26.1898199,9.13036 25.3195736,9.39028 24.4064227,9.50428 Z M24.4064227,9.50428" id="twitter--title-grey" fill="#3A434E" sketch:type="MSShapeGroup"></path>
        <path d="M24.4064227,49.50428 C25.3395957,48.91072 26.0539557,47.97136 26.390756,46.85036 C25.5190795,47.40136 24.5530131,47.79884 23.5247351,48.01392 C22.7009686,47.0814 21.5289605,46.5 20.2303842,46.5 C17.7390626,46.5 15.7175453,48.64624 15.7175453,51.29636 C15.7175453,51.67332 15.7568745,52.03812 15.8348177,52.38924 C12.0835338,52.19012 8.75843464,50.27872 6.5324059,47.37628 C6.14412013,48.08764 5.92173178,48.9092 5.92173178,49.78852 C5.92173178,51.45368 6.71761035,52.92048 7.93037769,53.7808 C7.18884483,53.75572 6.49307677,53.54064 5.88526295,53.18116 L5.88526295,53.24196 C5.88526295,55.5668 7.43983618,57.50404 9.5056881,57.94636 C9.12598323,58.05428 8.72768641,58.1128 8.31580316,58.1128 C8.02548268,58.1128 7.74159787,58.08392 7.46629396,58.02768 C8.0419294,59.93376 9.70805435,61.32 11.6830917,61.35876 C10.1385295,62.64544 8.19281025,63.41152 6.07833322,63.41152 C5.71221478,63.41152 5.35324709,63.39024 5,63.34464 C6.99720471,64.70504 9.36982383,65.5 11.9204967,65.5 C20.2203731,65.5 24.7610999,58.19032 24.7610999,51.85268 C24.7610999,51.6452 24.7553793,51.43772 24.7467984,51.231 C25.628486,50.55612 26.3936163,49.711 27,48.74884 C26.1898199,49.13036 25.3195736,49.39028 24.4064227,49.50428 Z M24.4064227,49.50428" id="twitter--title-grey-copy" fill="#67737B" sketch:type="MSShapeGroup"></path>
        <path d="M24.4064227,89.50428 C25.3395957,88.91072 26.0539557,87.97136 26.390756,86.85036 C25.5190795,87.40136 24.5530131,87.79884 23.5247351,88.01392 C22.7009686,87.0814 21.5289605,86.5 20.2303842,86.5 C17.7390626,86.5 15.7175453,88.64624 15.7175453,91.29636 C15.7175453,91.67332 15.7568745,92.03812 15.8348177,92.38924 C12.0835338,92.19012 8.75843464,90.27872 6.5324059,87.37628 C6.14412013,88.08764 5.92173178,88.9092 5.92173178,89.78852 C5.92173178,91.45368 6.71761035,92.92048 7.93037769,93.7808 C7.18884483,93.75572 6.49307677,93.54064 5.88526295,93.18116 L5.88526295,93.24196 C5.88526295,95.5668 7.43983618,97.50404 9.5056881,97.94636 C9.12598323,98.05428 8.72768641,98.1128 8.31580316,98.1128 C8.02548268,98.1128 7.74159787,98.08392 7.46629396,98.02768 C8.0419294,99.93376 9.70805435,101.32 11.6830917,101.35876 C10.1385295,102.64544 8.19281025,103.41152 6.07833322,103.41152 C5.71221478,103.41152 5.35324709,103.39024 5,103.34464 C6.99720471,104.70504 9.36982383,105.5 11.9204967,105.5 C20.2203731,105.5 24.7610999,98.19032 24.7610999,91.85268 C24.7610999,91.6452 24.7553793,91.43772 24.7467984,91.231 C25.628486,90.55612 26.3936163,89.711 27,88.74884 C26.1898199,89.13036 25.3195736,89.39028 24.4064227,89.50428 Z M24.4064227,89.50428" id="twitter--title-grey-copy-2" fill="#FFFFFF" sketch:type="MSShapeGroup"></path>
        <path d="M24.4064227,129.50428 C25.3395957,128.91072 26.0539557,127.97136 26.390756,126.85036 C25.5190795,127.40136 24.5530131,127.79884 23.5247351,128.01392 C22.7009686,127.0814 21.5289605,126.5 20.2303842,126.5 C17.7390626,126.5 15.7175453,128.64624 15.7175453,131.29636 C15.7175453,131.67332 15.7568745,132.03812 15.8348177,132.38924 C12.0835338,132.19012 8.75843464,130.27872 6.5324059,127.37628 C6.14412013,128.08764 5.92173178,128.9092 5.92173178,129.78852 C5.92173178,131.45368 6.71761035,132.92048 7.93037769,133.7808 C7.18884483,133.75572 6.49307677,133.54064 5.88526295,133.18116 L5.88526295,133.24196 C5.88526295,135.5668 7.43983618,137.50404 9.5056881,137.94636 C9.12598323,138.05428 8.72768641,138.1128 8.31580316,138.1128 C8.02548268,138.1128 7.74159787,138.08392 7.46629396,138.02768 C8.0419294,139.93376 9.70805435,141.32 11.6830917,141.35876 C10.1385295,142.64544 8.19281025,143.41152 6.07833322,143.41152 C5.71221478,143.41152 5.35324709,143.39024 5,143.34464 C6.99720471,144.70504 9.36982383,145.5 11.9204967,145.5 C20.2203731,145.5 24.7610999,138.19032 24.7610999,131.85268 C24.7610999,131.6452 24.7553793,131.43772 24.7467984,131.231 C25.628486,130.55612 26.3936163,129.711 27,128.74884 C26.1898199,129.13036 25.3195736,129.39028 24.4064227,129.50428 Z M24.4064227,129.50428" id="twitter--title-grey-copy-3" fill="#206FAC" sketch:type="MSShapeGroup"></path>
    </g>
</svg>

<svg width="32" height="232" viewBox="0 0 32 232" xmlns="http://www.w3.org/2000/svg" xmlns:sketch="http://www.bohemiancoding.com/sketch/ns"><title>twitter</title><g sketch:type="MSPage" fill="none"><path d="M24.406 9.504c.933-.594 1.648-1.533 1.984-2.654-.872.551-1.838.948-2.866 1.164-.824-.933-1.996-1.514-3.294-1.514-2.491 0-4.513 2.146-4.513 4.796 0 .377.039.742.117 1.093-3.751-.199-7.076-2.111-9.302-5.013-.388.711-.611 1.533-.611 2.412 0 1.665.796 3.132 2.009 3.992-.742-.025-1.437-.24-2.045-.6v.061c0 2.325 1.555 4.262 3.62 4.704-.38.108-.778.166-1.19.166-.29 0-.574-.029-.85-.085.576 1.906 2.242 3.292 4.217 3.331-1.545 1.287-3.49 2.053-5.605 2.053-.366 0-.725-.021-1.078-.067 1.997 1.36 4.37 2.155 6.92 2.155 8.3 0 12.841-7.31 12.841-13.647l-.014-.622c.882-.675 1.647-1.52 2.253-2.482-.81.382-1.68.641-2.594.755zm0 0" fill="#3A434E" sketch:type="MSShapeGroup"/><path d="M24.406 49.504c.933-.594 1.648-1.533 1.984-2.654-.872.551-1.838.948-2.866 1.164-.824-.933-1.996-1.514-3.294-1.514-2.491 0-4.513 2.146-4.513 4.796 0 .377.039.742.117 1.093-3.751-.199-7.076-2.111-9.302-5.013-.388.711-.611 1.533-.611 2.412 0 1.665.796 3.132 2.009 3.992-.742-.025-1.437-.24-2.045-.6v.061c0 2.325 1.555 4.262 3.62 4.704-.38.108-.778.166-1.19.166-.29 0-.574-.029-.85-.085.576 1.906 2.242 3.292 4.217 3.331-1.545 1.287-3.49 2.053-5.605 2.053-.366 0-.725-.021-1.078-.067 1.997 1.36 4.37 2.155 6.92 2.155 8.3 0 12.841-7.31 12.841-13.647l-.014-.622c.882-.675 1.647-1.52 2.253-2.482-.81.382-1.68.641-2.594.755zm0 0" fill="#67737B" sketch:type="MSShapeGroup"/><path d="M24.406 89.504c.933-.594 1.648-1.533 1.984-2.654-.872.551-1.838.948-2.866 1.164-.824-.933-1.996-1.514-3.294-1.514-2.491 0-4.513 2.146-4.513 4.796 0 .377.039.742.117 1.093-3.751-.199-7.076-2.111-9.302-5.013-.388.711-.611 1.533-.611 2.412 0 1.665.796 3.132 2.009 3.992-.742-.025-1.437-.24-2.045-.6v.061c0 2.325 1.555 4.262 3.62 4.704-.38.108-.778.166-1.19.166-.29 0-.574-.029-.85-.085.576 1.906 2.242 3.292 4.217 3.331-1.545 1.287-3.49 2.053-5.605 2.053-.366 0-.725-.021-1.078-.067 1.997 1.36 4.37 2.155 6.92 2.155 8.3 0 12.841-7.31 12.841-13.647l-.014-.622c.882-.675 1.647-1.52 2.253-2.482-.81.382-1.68.641-2.594.755zm0 0" fill="#fff" sketch:type="MSShapeGroup"/><path d="M24.406 129.504c.933-.594 1.648-1.533 1.984-2.654-.872.551-1.838.948-2.866 1.164-.824-.933-1.996-1.514-3.294-1.514-2.491 0-4.513 2.146-4.513 4.796 0 .377.039.742.117 1.093-3.751-.199-7.076-2.111-9.302-5.013-.388.711-.611 1.533-.611 2.412 0 1.665.796 3.132 2.009 3.992-.742-.025-1.437-.24-2.045-.6v.061c0 2.325 1.555 4.262 3.62 4.704-.38.108-.778.166-1.19.166-.29 0-.574-.029-.85-.085.576 1.906 2.242 3.292 4.217 3.331-1.545 1.287-3.49 2.053-5.605 2.053-.366 0-.725-.021-1.078-.067 1.997 1.36 4.37 2.155 6.92 2.155 8.3 0 12.841-7.31 12.841-13.647l-.014-.622c.882-.675 1.647-1.52 2.253-2.482-.81.382-1.68.641-2.594.755zm0 0" fill="#206FAC" sketch:type="MSShapeGroup"/></g></svg>
